X:334
T: Jian mian hua
N: C1182
O: China,Hebei, Changli
S: IV, 79, 2)                 , leichte Variante)]
N: Plattenhuelle kopiert.
N: Mehrere Verzierungen, Glissandi.
R: Xiaodiao. Caimian qingjing]
M: 2/4
L: 1/32
K: Eb
f4d4c4G4 | f4d4c4G4 | f6d2c4c2e2 | G4B8c4 | G16 |
G4G8G2G2 | f4d4c4c4 | E6F2G4G4 | F8F8 |
c8c8 | c8c8 |
G3GG2F2E4B4 | G6F2E4C4- | C4G4F3GF2E2 | F4C8B,4 | C8C8 |
G4G4G4d4 | c8c8 |
G3GG2F2E4B4 | G6F2E4C4- | C4G2G2F3GF2E2 | F4C8B,4 | C16 |
G4G4G4d4 | c16

@@@ Tune index: 6335
